packages/kaspersky-hexa-ui-icons/src/iconsSVGs/24/Save.svg

<svg width="24" height="24" viewBox="0 0 24 24" fill="none" xmlns="http://www.w3.org/2000/svg">
<path fill-rule="evenodd" clip-rule="evenodd" d="M19 22C20.6569 22 22 20.6569 22 19V7C22 6.73478 21.8946 6.48043 21.7071 6.29289L17.7071 2.29289C17.5196 2.10536 17.2652 2 17 2H5C3.34315 2 2 3.34315 2 5V19C2 20.6569 3.34315 22 5 22H19ZM5 4C4.44772 4 4 4.44772 4 5V19C4 19.5523 4.44772 20 5 20H6V13.4C6 12.6268 6.6268 12 7.4 12H16.6C17.3732 12 18 12.6268 18 13.4V20H19C19.5523 20 20 19.5523 20 19V7.41421L17 4.41421V6.6C17 7.3732 16.3732 8 15.6 8H7.4C6.6268 8 6 7.3732 6 6.6V4H5ZM16 20V14H8V20H16ZM8 4H15V6H8V4Z" fill="black"/>
</svg>

<svg xmlns="http://www.w3.org/2000/svg" width="24" height="24" fill="none" viewBox="0 0 24 24"><path fill="#000" fill-rule="evenodd" d="M19 22c1.6569 0 3-1.3431 3-3V7c0-.2652-.1054-.5196-.2929-.7071l-4-4A1 1 0 0 0 17 2H5C3.3432 2 2 3.3432 2 5v14c0 1.6569 1.3432 3 3 3zM5 4c-.5523 0-1 .4477-1 1v14c0 .5523.4477 1 1 1h1v-6.6c0-.7732.6268-1.4 1.4-1.4h9.2c.7732 0 1.4.6268 1.4 1.4V20h1c.5523 0 1-.4477 1-1V7.4142l-3-3V6.6c0 .7732-.6268 1.4-1.4 1.4H7.4C6.6268 8 6 7.3732 6 6.6V4zm11 16v-6H8v6zM8 4h7v2H8z"/></svg>
